X:1
T:Sherbrook, 55.5.11
T:Anonymous, before 1895
T:Sherbrook, 55.5.11
T:Public Domain
C:Anonymous, before 1895
Z:Public Domain
%%score ( 1 2 ) 3
L:1/8
M:3/4
K:Eb
V:1 treble 
V:2 treble 
V:3 bass 
V:1
 [EB]2 | [Ee]2 [FB]2 [DA]2 | [EG]4 [DB]2 | [EG]2 [EG]2 [DF]2 | E4 [DF]2 | [EG]2 [EG]2 [E=A]2 | %6
 [DB]4 [EB]2 | [Ec]2 [EB]2 (AG) | [EF]2 [DF]2 [FB]2 | [EG]2 [EG]2 [DF]2 | E4 |] %11
V:2
 x2 | x6 | x6 | x6 | E4 x2 | x6 | x6 | x4 E2 | x6 | x6 | E4 |] %11
V:3
 [E,G,]2 | [C,G,]2 [D,F,]2 [B,,B,]2 | [E,B,]4 [A,,B,]2 | [E,B,]2 [G,,B,]2 [B,,A,]2 | %4
 [E,G,]4 [B,,B,]2 | [E,B,]2 [C,C]2 [F,C]2 | [B,,B,]4 [E,G,]2 | [A,,A,]2 [G,,B,]2 [A,,C]2 | %8
 [B,,F,]2 [B,,B,]2 [D,B,]2 | [E,B,]2 [G,,B,]2 [B,,A,]2 | [E,G,]4 |] %11

